X: 1
T: THE DOUBLE HEAD -- JIG
C: R. NAGLE
B: Ryan's Mammoth Collection of Fiddle Tunes
R: jig
M: 6/8
L: 1/8
Z: Contributed 20010527161008 by John Chambers jc:trillian.mit.edu
K: Adorian
(ue/d/) \
| cBA BGE | EAA A2B | cBc BdB | BGG G2f \
| gfg ege | dBG Bcd | ecA dBG | EAA A2 :|
|: uf \
| geg ged | cBc A2f | gfg gdc | BGG G2B \
| cBc dcd | ege dcd | ecA dBG | EAA A2 :|
